X: 1
T:Edinburgh City Police Pipe Band  "HP&D 1995/10 TJ"
M:C|
L:1/8
Q:80
C:Rod. Campbell
S:March
K:HP
|: {gef}e|
{g}A{GdGe}A{GAG}A{g}B/4d3/4|
{g}e3/4f/4{g}d3/4e/4{gf}g{a}e3/4d/4|  !
{g}B/4d3/4{gBd}B3/4A/4{g}G{dGe}G|
{g}B/4d3/4{g}e3/4A/4{g}f3/4e/4{gde}d3/4B/4| |
{g}A{GdGe}A{GAG}A{g}B/4d3/4|  !
{g}e3/4f/4{a}g/2e/4{ag}ag3/4f/4|
{g}e3/4f/4{gef}e3/4d/4{g}B/4d3/4{g}e/4g3/4|
{aBd}B{e}A{GAG}A:| |:  !
{g}f/4g3/4|
{ag}a2{ef}e{ag}a|
e3/4f/4{a}g3/4e/4{ag}a/2e3/4f/4|  !
{ag}a{a}f3/4e/4{Gdc}d{g}B/4d3/4|
{g}e3/4f/4{a}g/2e/4{g}f3/4e/4{gde}d3/4B/4| |
|1 {ag}a2{ef}e{ag}a:|2  !
{g}c3/4d/4{g}e3/4f/4{gef}e{g}d3/4B/4|
{g}e3/4f/4{a}g/2e/4{ag}ag3/4f/4|
{g}e3/4f/4{gef}e3/4d/4{g}B/4d3/4{g}e/4g3/4|  !
{aBd}B{e}A{GAG}A:| |:
{gef}e|
{gAGAG}A{gef}e{g}A3/4{d}B/4{g}e3/4d/4|  !
{g}B/4{d}A3/4{g}e3/4a/4g3/4e/4{gde}d3/4B/4|
{gGd}G{dc}d{g}B/4{d}G3/4{g}d3/4B/4|
{g}e3/4f/4{a}g3/4e/4{g}f3/4e/4{gde}d3/4B/4| |  !
{gAGAG}A{gef}e{g}A3/4{d}B/4{g}e3/4d/4|
{g}e3/4f/4{a}g/2e/4{ag}ag3/4f/4|
{g}e3/4f/4{gef}e3/4d/4{g}B/4d3/4{g}e/4g3/4|  !
{aBd}B{e}A{GAG}A:| |:
{g}f3/4g/4|
a3/4e/4{g}A3/4{d}B/4{gef}e{g}B/4d3/4|  !
{g}f3/4e/4{g}A3/4{d}B/4{g}e3/4a/4g3/8e/4|
{gde}d3/4B/4{d}G/2B/4{Gdc}d{g}B/4d3/4|
{g}e3/4f/4{a}g3/4e/4{g}f3/4e/4{gde}d3/4B/4| |  !
|1 a3/4e/4{g}A3/4{d}B/4{gef}e{g}B/4d3/4:|2
{g}c3/4d/4{g}e3/4f/4{gef}e{g}d3/4B/4|
{g}e3/4f/4{a}g/2e/4{ag}ag3/4f/4|  !
{g}e3/4f/4{gef}e3/4d/4{g}B/4d3/4{g}e/4g3/4|
{aBd}B{e}A{GAG}A:|
